lib/logo_updates/nrk-logo-nrk-p3-urort-with-bg.svg

<svg width="399" height="84" viewBox="0 0 399 84" fill="none" xmlns="http://www.w3.org/2000/svg">
<rect width="399" height="84" fill="#FFE100"/>
<path d="M268.159 46.3889C268.185 48.1534 267.976 49.9134 267.538 51.623C267.189 53.0128 266.532 54.3064 265.616 55.4082C264.698 56.4478 263.527 57.2322 262.216 57.6852C260.588 58.2339 258.876 58.4941 257.159 58.454C255.158 58.4994 253.167 58.1476 251.303 57.419C249.665 56.7456 248.322 55.5077 247.518 53.9296C246.557 51.848 246.111 49.5661 246.216 47.276V21.0176H240.006V48.2854C239.94 50.7384 240.394 53.1777 241.338 55.4426C242.144 57.3106 243.405 58.9473 245.005 60.2036C246.615 61.4327 248.455 62.3275 250.417 62.8355C252.539 63.3961 254.727 63.6742 256.922 63.6625C260.22 63.7913 263.497 63.0789 266.444 61.5925C268.852 60.2913 270.787 58.2629 271.974 55.7965C273.231 53.0533 273.848 50.0601 273.777 47.0434V21.0205H268.158L268.159 46.3889Z" fill="black"/>
<path d="M294.951 32.6391C293.845 32.935 292.788 33.3934 291.817 33.9994C290.807 34.6288 289.875 35.3731 289.037 36.2173C288.897 36.3563 288.761 36.513 288.623 36.6589V32.2537L282.59 33.1409V63.008H288.623V40.6648C289.071 40.3513 289.535 40.0608 290.013 39.7944C290.605 39.4691 291.217 39.1826 291.846 38.9369C292.457 38.7003 293.078 38.4933 293.709 38.3159C294.358 38.1352 295.021 38.0066 295.69 37.9314C296.407 37.8528 297.129 37.833 297.849 37.8723L298.559 32.3139C297.347 32.2262 296.128 32.3361 294.951 32.6391Z" fill="black"/>
<path d="M329.431 31.4849L326.119 34.9802C325.684 34.6559 325.23 34.3577 324.759 34.0872C322.287 32.771 319.515 32.1192 316.716 32.1956C313.901 32.1317 311.118 32.8041 308.643 34.1463C306.358 35.4251 304.49 37.3346 303.261 39.6466C301.925 42.2405 301.264 45.1291 301.339 48.0459C301.263 50.9424 301.892 53.814 303.172 56.4136C303.511 57.0573 303.901 57.6731 304.338 58.2549L301.043 61.767L303.763 64.25L306.918 60.8414C307.372 61.1812 307.849 61.4904 308.345 61.767C310.759 63.0339 313.456 63.6646 316.181 63.5994C319.015 63.659 321.816 62.9867 324.314 61.6477C326.648 60.3583 328.566 58.4301 329.843 56.0893C331.235 53.4704 331.928 50.5366 331.854 47.5717C331.922 44.7479 331.282 41.9521 329.991 39.4396C329.64 38.796 329.239 38.1813 328.791 37.6012L332.209 33.9689L329.431 31.4849ZM308.791 41.7176C309.454 40.2365 310.559 38.9969 311.955 38.169C313.427 37.3519 315.091 36.9435 316.775 36.9861C318.113 36.9555 319.444 37.2074 320.678 37.7254C321.343 38.0244 321.957 38.4262 322.497 38.9162L308.737 53.7768C307.971 51.842 307.606 49.7713 307.667 47.691C307.597 45.6414 307.98 43.6016 308.791 41.7176ZM324.404 53.9C323.728 55.4294 322.604 56.7181 321.181 57.5964C319.754 58.4227 318.128 58.8424 316.479 58.8098C314.845 58.848 313.233 58.417 311.836 57.5679C311.443 57.3145 311.075 57.0237 310.737 56.6994L324.504 41.8359C324.709 42.3071 324.883 42.7911 325.025 43.2849C325.415 44.7203 325.604 46.2027 325.587 47.69C325.657 49.8233 325.253 51.9456 324.404 53.904V53.9Z" fill="black"/>
<path d="M351.786 32.6391C350.68 32.9352 349.624 33.3936 348.652 33.9994C347.643 34.6291 346.71 35.3733 345.872 36.2173C345.732 36.3563 345.596 36.513 345.458 36.6589V32.2537L339.426 33.1409V63.008H345.458V40.6648C345.906 40.3513 346.37 40.0608 346.848 39.7944C347.44 39.4691 348.052 39.1826 348.681 38.9369C349.293 38.7003 349.914 38.4933 350.544 38.3159C351.194 38.1354 351.856 38.0068 352.526 37.9314C353.242 37.8528 353.964 37.833 354.684 37.8723L355.394 32.3139C354.182 32.2263 352.963 32.3361 351.786 32.6391Z" fill="black"/>
<path d="M377.455 58.0706C377.178 58.1287 376.873 58.1889 376.538 58.247L375.533 58.4244C375.21 58.482 374.884 58.5215 374.556 58.5427C374.241 58.5634 373.944 58.5723 373.669 58.5723C372.763 58.5976 371.863 58.4155 371.037 58.04C370.327 57.7038 369.739 57.1563 369.352 56.4727C368.937 55.7016 368.734 54.8351 368.76 53.9601V37.5766H377.1L377.751 32.8452H368.76V23.4996L362.728 25.6287V32.8452H358.174L357.523 37.5766H362.728V55.2012C362.701 56.3767 362.881 57.5478 363.26 58.661C363.565 59.5417 364.037 60.3552 364.651 61.0563C365.213 61.6811 365.898 62.1843 366.662 62.5349C367.444 62.8941 368.268 63.1524 369.115 63.3037C369.954 63.4583 370.805 63.5375 371.658 63.5403C372.289 63.5403 372.909 63.5206 373.522 63.4821C374.135 63.4437 374.694 63.3836 375.208 63.3037C375.721 63.2239 376.203 63.1352 376.656 63.0386C377.109 62.942 377.494 62.8513 377.809 62.7714L378.165 57.8636C377.934 57.9514 377.697 58.0206 377.455 58.0706Z" fill="black"/>
<path d="M182.166 21.0173H169.212C169.212 21.0173 176.573 33.1013 176.656 33.2534C176.933 33.6028 177.088 34.0337 177.097 34.4798C177.106 34.9259 176.968 35.3625 176.704 35.7225L169.212 48.004H182.168C182.168 48.004 188.416 37.7877 189.27 36.3695C189.675 35.8261 189.892 35.1649 189.885 34.4871C189.879 33.8092 189.651 33.1521 189.236 32.6163C188.314 31.0469 188.312 31.048 182.166 21.0173Z" fill="black"/>
<path d="M167.538 21.0175H156V62.9939H167.538V21.0175Z" fill="black"/>
<path d="M222.743 27.9714C222.307 27.2287 218.451 21.0173 218.451 21.0173H190.722L196.779 31.1773H211.385L205.36 41.0539L212.076 52.3379L205.594 62.9907H217.432C219.335 59.8776 222.181 55.0619 222.775 54.0752C223.183 53.5299 223.401 52.8657 223.394 52.1849C223.388 51.504 223.158 50.844 222.741 50.3063C222.148 49.2949 218.978 44.2668 217.083 41.1715C217.083 41.1715 222.181 32.725 222.775 31.7383C223.183 31.1934 223.4 30.5298 223.394 29.8494C223.389 29.169 223.16 28.5092 222.743 27.9714Z" fill="black"/>
<path d="M196.07 42.4179C194.245 45.3986 191.193 50.3942 190.621 51.368C190.219 51.886 189.997 52.5218 189.991 53.1777C189.985 53.8336 190.195 54.4733 190.588 54.9986C191.16 55.9487 194.236 60.9839 196.07 63.9863C197.903 60.9868 200.98 55.9517 201.552 54.9986C201.944 54.4733 202.154 53.8336 202.148 53.1778C202.142 52.522 201.921 51.8862 201.519 51.368C200.947 50.3942 197.894 45.3986 196.07 42.4179Z" fill="black"/>
<path d="M20 63V21.0038H33.7802V63H20ZM52.5283 27.6877L60.4532 63H45.3721L35.9092 21.0038H44.3676C46.3072 20.9786 48.1892 21.6624 49.6607 22.9264C51.1347 24.1373 52.1473 25.8184 52.5283 27.6877ZM62.5233 63V21.0038H76.3035V63H62.5233ZM86.7116 36.9743C85.2267 36.9888 83.7656 36.6003 82.4839 35.8504C81.2193 35.1194 80.1688 34.0689 79.438 32.8041C78.6872 31.5222 78.2986 30.0607 78.3134 28.5751C78.2964 27.0986 78.6853 25.6458 79.438 24.3755C80.1766 23.1245 81.2259 22.0853 82.4839 21.3588C83.766 20.6098 85.2269 20.2213 86.7116 20.2348C88.1877 20.2189 89.6399 20.6078 90.9108 21.3588C92.1562 22.0917 93.1943 23.13 93.9271 24.3755C94.6789 25.6462 95.0677 27.0987 95.0517 28.5751C95.0655 30.0605 94.6769 31.5218 93.9271 32.8041C93.202 34.0633 92.1627 35.113 90.9108 35.8504C89.6398 36.6029 88.1866 36.9918 86.7097 36.9743H86.7116ZM97.1807 63V21.0038H110.962V63H97.1807ZM128.408 43.9538C128.447 43.9946 128.742 44.4776 129.295 45.403C129.848 46.3283 130.567 47.5114 131.454 48.952C132.341 50.392 133.277 51.9199 134.262 53.536C135.247 55.1521 136.174 56.6803 137.043 58.1202C137.908 59.5602 138.894 61.1867 140 63H124.859C123.912 61.4621 123.055 60.0721 122.286 58.83C121.517 57.5878 120.7 56.2471 119.833 54.8077C118.965 53.3698 118.107 51.9699 117.259 50.6081C116.41 49.2464 115.681 48.0536 115.071 47.0297C114.459 46.0051 114.035 45.3149 113.799 44.9594C113.214 44.0771 112.868 43.058 112.794 42.0019C112.853 40.9883 113.179 40.0084 113.74 39.1619C113.976 38.7676 114.41 38.0675 115.041 37.062C115.672 36.0564 116.411 34.8637 117.259 33.4835C118.106 32.1034 118.965 30.6936 119.833 29.2543C120.702 27.815 121.519 26.4643 122.286 25.2025C123.056 23.9419 123.914 22.5421 124.859 21.0029H140L128.289 40.1082C127.926 40.6755 127.722 41.3292 127.697 42.0019C127.736 42.7081 127.983 43.3871 128.406 43.9538H128.408Z" fill="black"/>
</svg>

<svg xmlns="http://www.w3.org/2000/svg" viewBox="0 0 399 84"><path fill="#FFE100" d="M0 0h399v84H0z"/><path fill="#000" d="M268.159 46.389a19.907 19.907 0 0 1-.621 5.234 9.565 9.565 0 0 1-1.922 3.785 8.037 8.037 0 0 1-3.4 2.277c-1.628.549-3.34.81-5.057.769a15.144 15.144 0 0 1-5.856-1.035 7.41 7.41 0 0 1-3.785-3.49 14.31 14.31 0 0 1-1.302-6.653V21.018h-6.21v27.267a17.389 17.389 0 0 0 1.332 7.158 12.198 12.198 0 0 0 3.667 4.76 15.195 15.195 0 0 0 5.412 2.633c2.122.56 4.31.838 6.505.827a19.459 19.459 0 0 0 9.522-2.07 12.991 12.991 0 0 0 5.53-5.797 19.89 19.89 0 0 0 1.803-8.753V21.02h-5.619l.001 25.369ZM294.951 32.64a11.567 11.567 0 0 0-3.134 1.36 15.372 15.372 0 0 0-2.78 2.217c-.14.14-.276.296-.414.442v-4.405l-6.033.887v29.867h6.033V40.665c.448-.314.912-.604 1.39-.87a15.568 15.568 0 0 1 1.833-.858 20.584 20.584 0 0 1 1.863-.621 12.661 12.661 0 0 1 4.14-.444l.71-5.558a11.225 11.225 0 0 0-3.608.325ZM329.431 31.485l-3.312 3.495a13.643 13.643 0 0 0-1.36-.893 16.176 16.176 0 0 0-8.043-1.891 16.165 16.165 0 0 0-8.073 1.95 13.638 13.638 0 0 0-5.382 5.5 17.368 17.368 0 0 0-1.922 8.4 17.88 17.88 0 0 0 1.833 8.368c.339.643.729 1.26 1.166 1.84l-3.295 3.513 2.72 2.483 3.155-3.409c.454.34.931.65 1.427.926a16.037 16.037 0 0 0 7.836 1.832c2.834.06 5.635-.612 8.133-1.951a14.022 14.022 0 0 0 5.529-5.559 17.232 17.232 0 0 0 2.011-8.517 16.902 16.902 0 0 0-1.863-8.132 13.88 13.88 0 0 0-1.2-1.839l3.418-3.632-2.778-2.484Zm-20.64 10.233a7.858 7.858 0 0 1 3.164-3.549 9.439 9.439 0 0 1 4.82-1.183 9.525 9.525 0 0 1 3.903.74c.665.298 1.279.7 1.819 1.19l-13.76 14.86a15.314 15.314 0 0 1-1.07-6.085c-.07-2.05.313-4.09 1.124-5.973ZM324.404 53.9a8.276 8.276 0 0 1-3.223 3.696 9.027 9.027 0 0 1-4.702 1.214 8.556 8.556 0 0 1-4.643-1.242 7.306 7.306 0 0 1-1.099-.869l13.767-14.863c.205.471.379.955.521 1.449.39 1.435.579 2.918.562 4.405a14.433 14.433 0 0 1-1.183 6.214V53.9ZM351.786 32.64a11.593 11.593 0 0 0-3.134 1.36 15.428 15.428 0 0 0-2.78 2.217c-.14.14-.276.296-.414.442v-4.405l-6.032.887v29.867h6.032V40.665c.448-.314.912-.604 1.39-.87a15.568 15.568 0 0 1 1.833-.858 20.794 20.794 0 0 1 1.863-.621 12.72 12.72 0 0 1 4.14-.444l.71-5.558a11.228 11.228 0 0 0-3.608.325ZM377.455 58.07c-.277.059-.582.119-.917.177l-1.005.177a8.795 8.795 0 0 1-.977.119c-.315.02-.612.03-.887.03a5.958 5.958 0 0 1-2.632-.533 3.81 3.81 0 0 1-1.685-1.567 4.987 4.987 0 0 1-.592-2.513V37.577h8.34l.651-4.732h-8.991V23.5l-6.032 2.129v7.216h-4.554l-.651 4.732h5.205V55.2a10.02 10.02 0 0 0 .532 3.46c.305.88.777 1.694 1.391 2.395a6.162 6.162 0 0 0 2.011 1.479c.782.36 1.606.617 2.453.769.839.154 1.69.233 2.543.236.631 0 1.251-.02 1.864-.058a18.515 18.515 0 0 0 1.686-.178c.513-.08.995-.169 1.448-.265a31.13 31.13 0 0 0 1.153-.268l.356-4.907a4.638 4.638 0 0 1-.71.207ZM182.166 21.017h-12.954s7.361 12.084 7.444 12.236a2.04 2.04 0 0 1 .048 2.47l-7.492 12.281h12.956s6.248-10.216 7.102-11.634a3.098 3.098 0 0 0-.034-3.754c-.922-1.57-.924-1.568-7.07-11.599ZM167.538 21.017H156v41.977h11.538V21.017ZM222.743 27.971c-.436-.742-4.292-6.954-4.292-6.954h-27.729l6.057 10.16h14.606l-6.025 9.877 6.716 11.284-6.482 10.653h11.838c1.903-3.113 4.749-7.93 5.343-8.916a3.111 3.111 0 0 0-.034-3.769c-.593-1.011-3.763-6.04-5.658-9.135 0 0 5.098-8.446 5.692-9.433a3.105 3.105 0 0 0-.032-3.767Z"/><path fill="#000" d="M196.07 42.418c-1.825 2.98-4.877 7.976-5.449 8.95a2.998 2.998 0 0 0-.033 3.63c.572.95 3.648 5.986 5.482 8.988 1.833-3 4.91-8.034 5.482-8.987a3 3 0 0 0-.033-3.631c-.572-.974-3.625-5.97-5.449-8.95ZM20 63V21.004h13.78V63H20Zm32.528-35.312L60.453 63h-15.08l-9.464-41.996h8.459a7.965 7.965 0 0 1 5.293 1.922 8.31 8.31 0 0 1 2.867 4.762ZM62.523 63V21.004h13.78V63h-13.78Zm24.189-26.026a8.213 8.213 0 0 1-4.228-1.124 8.336 8.336 0 0 1-3.046-3.046 8.206 8.206 0 0 1-1.125-4.229 8.056 8.056 0 0 1 1.125-4.2 8.437 8.437 0 0 1 3.046-3.016 8.233 8.233 0 0 1 4.228-1.124 8.083 8.083 0 0 1 4.199 1.124 8.504 8.504 0 0 1 3.016 3.016 8.075 8.075 0 0 1 1.125 4.2 8.226 8.226 0 0 1-1.125 4.23 8.4 8.4 0 0 1-3.016 3.045 8.059 8.059 0 0 1-4.201 1.124h.002ZM97.18 63V21.004h13.781V63H97.181Zm31.227-19.046c.039.04.334.524.887 1.449.553.925 1.272 2.108 2.159 3.549a1143.28 1143.28 0 0 1 5.589 9.168A854.89 854.89 0 0 0 140 63h-15.141c-.947-1.538-1.804-2.928-2.573-4.17a388.795 388.795 0 0 1-2.453-4.022 355.984 355.984 0 0 0-2.574-4.2 210.645 210.645 0 0 1-2.188-3.578 62.13 62.13 0 0 0-1.272-2.07 6.127 6.127 0 0 1-1.005-2.958 5.745 5.745 0 0 1 .946-2.84c.236-.394.67-1.094 1.301-2.1.631-1.006 1.37-2.198 2.218-3.578.847-1.38 1.706-2.79 2.574-4.23.869-1.439 1.686-2.79 2.453-4.052.77-1.26 1.628-2.66 2.573-4.2H140l-11.711 19.106a3.773 3.773 0 0 0-.592 1.894c.039.706.286 1.385.709 1.952h.002Z"/></svg>
